X:407
T: WO ICH SEI UND WO MICH HINGEWENDET
N: B0480
O: Europa, Mitteleuropa, Deutschland
R: Liebes - Lied, Leid, Klage, Tod
M: 4/4
L: 1/16
K: G
D2D2 | G6G2F2G2c2B2 | ^G2A2A4z4
D2D2 | B6G2E2E2A2G2 | F8z4
c2A2 | G2F4A2d2c2B2A2 | A3GG4z4
d2B2 | A2^G4B2e2d2c2B2 | c8
d6c2 | B2ABdcBAG4A3G | G8z4

@@@ Tune index: 2210
